symbols/web/flight_class/materialsymbolsrounded/flight_class_wght100gradN25fill1_20px.svg

<svg xmlns="http://www.w3.org/2000/svg" height="20" width="20"><path d="M12.271 9.708q-.479 0-.802-.323-.323-.323-.323-.802v-3q0-.479.323-.812.323-.333.802-.333h.479q.479 0 .812.333.334.333.334.812v3q0 .479-.334.802-.333.323-.812.323Zm-4.188 4.167q-.25 0-.468-.146-.219-.146-.282-.354L5.375 6.958l-.063-.218q-.02-.073-.02-.178V4.75q0-.125.093-.219.094-.093.198-.093.125 0 .219.093.094.094.094.219V6.583q0 .063.021.105l1.895 6.124q.063.209.24.334.177.125.406.125h5.688q.125 0 .219.094.093.093.093.218 0 .105-.093.198-.094.094-.219.094Zm-.541 2.5q-.104 0-.198-.094-.094-.093-.094-.198 0-.125.094-.218.094-.094.198-.094h6.583q.125 0 .219.094.094.093.094.218 0 .105-.094.198-.094.094-.219.094Z"/></svg>

<svg xmlns="http://www.w3.org/2000/svg" height="20" width="20"><path d="M12.271 9.708Q11.792 9.708 11.469 9.385Q11.146 9.062 11.146 8.583V5.583Q11.146 5.104 11.469 4.771Q11.792 4.438 12.271 4.438H12.75Q13.229 4.438 13.562 4.771Q13.896 5.104 13.896 5.583V8.583Q13.896 9.062 13.562 9.385Q13.229 9.708 12.75 9.708ZM8.083 13.875Q7.833 13.875 7.615 13.729Q7.396 13.583 7.333 13.375L5.375 6.958Q5.333 6.812 5.312 6.74Q5.292 6.667 5.292 6.562V4.75Q5.292 4.625 5.385 4.531Q5.479 4.438 5.583 4.438Q5.708 4.438 5.802 4.531Q5.896 4.625 5.896 4.75V6.479Q5.896 6.521 5.896 6.583Q5.896 6.646 5.917 6.688L7.812 12.812Q7.875 13.021 8.052 13.146Q8.229 13.271 8.458 13.271H14.146Q14.271 13.271 14.365 13.365Q14.458 13.458 14.458 13.583Q14.458 13.688 14.365 13.781Q14.271 13.875 14.146 13.875ZM7.542 16.375Q7.438 16.375 7.344 16.281Q7.25 16.188 7.25 16.083Q7.25 15.958 7.344 15.865Q7.438 15.771 7.542 15.771H14.125Q14.25 15.771 14.344 15.865Q14.438 15.958 14.438 16.083Q14.438 16.188 14.344 16.281Q14.25 16.375 14.125 16.375Z"/></svg>
